assets/icons/moon.svg

<svg class="ucla-icon moon" width="24" height="24" viewBox="0 0 24 24" aria-labelledby="icon-moon" role="img"><title id="icon-moon">Icon Weather/Moon</title><g fill="none" fill-rule="evenodd"><path d="M5 12.2c0-1 .2-1.9.6-2.8.4-.9.9-1.6 1.5-2.3.6-.7 1.4-1.1 2.3-1.5.9-.4 1.8-.6 2.8-.6h1.1c.2 0 .2.1.2.3v.9c0 1.3.5 2.4 1.4 3.2.9.9 1.9 1.4 3.2 1.4l.8.1c.2 0 .2.1.2.2v1c0 1.3-.3 2.5-.9 3.6-.6 1.1-1.5 2-2.6 2.6-1.1.6-2.3 1-3.6 1-1 0-1.9-.2-2.8-.6-.9-.4-1.6-.9-2.3-1.5-.6-.6-1.1-1.4-1.5-2.3-.2-.8-.4-1.8-.4-2.7zm1.8 0c0 .8.1 1.5.4 2.2.3.7.7 1.2 1.2 1.7s1.1.8 1.7 1.1c.6.3 1.3.4 1.9.4.6 0 1.2-.1 1.8-.3.6-.2 1.1-.5 1.6-1s.9-.9 1.3-1.6c.4-.6.6-1.3.7-2.1-1.6-.3-2.9-1-3.9-2.1s-1.4-2.3-1.6-3.8c-1 .1-1.8.3-2.6.9-.8.5-1.4 1.2-1.8 2-.4.8-.7 1.7-.7 2.6z" id="Shape" fill="#000"/></g></svg>

<?xml version="1.0" encoding="UTF-8"?>
<svg width="24px" height="24px" viewBox="0 0 24 24" version="1.1" xmlns="http://www.w3.org/2000/svg" xmlns:xlink="http://www.w3.org/1999/xlink">
    <!-- Generator: Sketch 53.2 (72643) - https://sketchapp.com -->
    <title>Icon/Weather/Moon</title>
    <desc>Created with Sketch.</desc>
    <g id="Icon/Weather/Moon" stroke="none" stroke-width="1" fill="none" fill-rule="evenodd">
        <path d="M5,12.2 C5,11.2 5.2,10.3 5.6,9.4 C6,8.5 6.5,7.8 7.1,7.1 C7.7,6.4 8.5,6 9.4,5.6 C10.3,5.2 11.2,5 12.2,5 L13.3,5 C13.5,5 13.5,5.1 13.5,5.3 L13.5,6.2 C13.5,7.5 14,8.6 14.9,9.4 C15.8,10.3 16.8,10.8 18.1,10.8 L18.9,10.9 C19.1,10.9 19.1,11 19.1,11.1 L19.1,12.1 C19.1,13.4 18.8,14.6 18.2,15.7 C17.6,16.8 16.7,17.7 15.6,18.3 C14.5,18.9 13.3,19.3 12,19.3 C11,19.3 10.1,19.1 9.2,18.7 C8.3,18.3 7.6,17.8 6.9,17.2 C6.3,16.6 5.8,15.8 5.4,14.9 C5.2,14.1 5,13.1 5,12.2 Z M6.8,12.2 C6.8,13 6.9,13.7 7.2,14.4 C7.5,15.1 7.9,15.6 8.4,16.1 C8.9,16.6 9.5,16.9 10.1,17.2 C10.7,17.5 11.4,17.6 12,17.6 C12.6,17.6 13.2,17.5 13.8,17.3 C14.4,17.1 14.9,16.8 15.4,16.3 C15.9,15.8 16.3,15.4 16.7,14.7 C17.1,14.1 17.3,13.4 17.4,12.6 C15.8,12.3 14.5,11.6 13.5,10.5 C12.5,9.4 12.1,8.2 11.9,6.7 C10.9,6.8 10.1,7 9.3,7.6 C8.5,8.1 7.9,8.8 7.5,9.6 C7.1,10.4 6.8,11.3 6.8,12.2 Z" id="Shape" fill="#000000"></path>
    </g>
</svg>
